X:1
T:James Gibb editions
T:Quanta beltà - Arcadelt
T:#
%%score [ 1 2 3 4 ]
L:1/8
Q:1/4=180
M:none
K:F
V:1 treble nm="Soprano" snm="S"
V:2 treble nm="Alto" snm="A"
V:3 treble-8 nm="Tenor" snm="T"
V:4 bass nm="Bass" snm="B"
V:1
"^Quanta beltà""^Jacques Arcadelt\n(1505-68)" z8 F8- | F8 F8 | G8 A4 A4- | A4 A4 B4 A4 | %4
w: Quan\-|* ta|bel- tà, quan\-|* ta gra- tia~~e|
 G4 (A6 G2 F2 E2 | F8 E8 | z4 F4 G4 G4 | A4 G4 F8 | z8 z8 | z8 z8 | z4 F4 F4 G4 | A4 A4 F4 A4 | %12
w: splen- do\- * * *|* re|Si vid- de~~in|don- na mai,|||si vid- de~~in|don- na mai, Va-|
 A4 A4 G8 | G4 A8 G4 | G4 F8 E4 | F8 A8 | B4 A4 F4 G4 | A4 A4 A8 | A4 A4 A8 | G8 z8 | z16 | %21
w: ga an- gio-|let- ta tut-|t'il ciel vi|die- de|Quant' al- ta cor-|tes- sia, quan-|to va- lo-|re||
 z8 z4 c4- | c4 B4 A8 | G8 F6 E2) | D8 C4 c4- | c4 =B4 c8 | G8 A4 A4 | F8 E4 A4- | A4 c4 B4 A4- | %29
w: Re-|* gno in|don- na *|gia mai, gi\-|* a mai.|Tut- t'in voi|re- gna con|* pie- ta- te~~e|
 A4 G4 A8- | A8 F8 | F4 F4 G4 G4 | A8 A8 | z4 A4 A6 G2 | F4 A4 G4 F4- | F4 E4 F8 | z16 | c8 B4 A4 | %38
w: * se- de|* Tal|che chiun- que vi|ve- de|Di- ce che~~i|bei sem- bien- ti|* vos- tri||I di- via|
 c8 F4 z4 | z8 c8 | B4 A4 c8 | F4 A4 A4 A4 | G4 _E4 F8 | E8 G8- | G4 G4 A4 A4- | A4 A4 B8 | %46
w: oc- chi,|i|di- via oc-|chi, il bel vol-|to~~e le chio-|me D'An\-|* ge- la son|* in- sie-|
 A4 (A6 G2) G4- | G4 (F8 E4) | F16- | F16 | F16 |] %51
w: me col * bel|* no\- *|me.|||
V:2
 z8 C8- | C8 D8 | E8 F8- | F4 F4 D4 F4 | (G4 F2 E2 D2 C2 C4- | C4 B,4) C4 C4 | D4 D4 E4 E4 | %7
w: Quan\-|* ta|bel- tà,|* gra- tia~~e splen-|do\- * * * * *|* * re Si|vid- de~~in don- na|
 (C6 B,2 A,8) | z8 C8 | D4 D4 D4 E4 | (C4 F8 E4 | F8) F8 | F4 F4 D8 | E4 F8 E4 | D4 D4 C8 | C8 F8 | %16
w: mai, * *|si|vid- de~~in don- na|mai, * *|* Va-|ga an- gio-|let- ta tut-|t'il ciel vi|die- de|
 D4 F4 F4 E4 | F4 F4 z4 F4 | F4 F4 (F8 | E6 DC D8 | C4 B,4 A,8) | (G,2 F,2) F8 E4 | D8 C4 A,4 | %23
w: Quant' al- ta cor-|tes- sia, quan-|to va- lo\-|||re * Re- gnò|in don- na|
 C8 F,8 | G,8 z4 C4 | D8 C8 | E8 C4 C4- | C4 =B,4 C8 | F4 F4 D4 (F4- | F2 E2 D8 C2 =B,2 | %30
w: gi- a|mai, gia|mai. Tut-|t'in voi re\-|* gna con|pie- ta- te~~e se\-||
 C8) D4 D4 | D4 D4 E4 E4 | F8 F8 | z4 C4 C4 C4 | D6 C2 B,4 A,4 | G,8 F,8 | z8 z4 F4- | %37
w: * de Tal|che chiun- que vi|ve- de|Di- ce che~~i|bei sem- bien- ti|vos- tri|I|
 F4 E4 D4 F4- | F4 C4 z8 | z4 F8 E4 | D4 F8 C4 | z4 C4 C4 A,4 | B,4 C8 =B,4 | C8 E8- | %44
w: * di- via oc\-|* chi,|i di-|via oc- chi,|il bel vol-|to~~e le chio-|me D'An\-|
 E4 E4 F4 F4- | F4 F4 F8 | F4 F8 C4 | (D4 B,4) C8 | A,12 A,4 | D16 | C16 |] %51
w: * ge- la son|* in- sie-|me col bel|no\- * me,|col bel|no-|me.|
V:3
 c16 | A8 F8 | c8 c8- | c4 c4 B4 c4- | c4 A4 F8- | F8"^re" G8 | z8 z8 | z8 z4 F4 | G4 G4 A4 A4 | %9
w: Quan-|ta bel-|tà, quan\-|* ta gra- tia~~e|* splen- do\-|||Si|vid- de~~in don- na|
 F4 B4 A4 c4 | c4 c4 (c8 | F4) c4 c4 d4- | d4 c8 =B4 | c4 c8 c4 | A4 B4 G8 | F8 z4 c4 | %16
w: mai, si vid- de~~in|don- na mai,|* Va- ga an\-|* gio- let-|ta tut- t'il|ciel vi die-|de Quant'|
 B4 c4 d4 B4 | c4 c4 c8 | d4 d4 c8 | c8 z4 f4- | f4 e4 d4 c4- | c4 B4 c8 | F8 z4 f4- | %23
w: al- ta cor- tes-|si- a, quan-|to va- lo-|re Re\-|* gnò in don\-|* na gia|mai, re\-|
 f4 e4 d4 c4- | c4 =B4 c8 | G8 z8 | c8 A4 A4 | A4 F4 G4 A4- | A4 A4 B4 c4 | (d8 e8- | e8) d4 A4 | %31
w: * gno in don\-|* na gia|mai.|Tut- t'in voi|re- gna con pie\-|* ta- te e|se\- *|* de Tal|
 A4 A4 c4 c4 | c8 c8- | c8 z8 | z16 | c8 B4 A4- | A2 G2 (c8 =B4) | c8 z8 | z8 c8 | B4 A4 c8 | %40
w: che chiun- que vi|ve- de|||e cos- tu\-|* mi san\- *|ti,|I|di- via oc-|
 G4 F4 A6 B2 | c4 A4 A4 F4 | G4 G4 F8 | G8 c8- | c4 c4 c8 | c4 c4 d8 | c8 c8 | (A4 F4) G8 | %48
w: chi, i di- via|oc- chi,~~il bel vol-|to~~e le chio-|me D'An\-|* ge- la|son in- sie-|me col|bel * no-|
 F4 F8 F4 | B16 | A16 |] %51
w: me, col bel|no-|me.|
V:4
 z8 F,8- | F,8 D,8 | C,8 F,4 F,4- | F,4 F,4 G,4 F,4 | E,4 (F,6 E,2 D,2 C,2 | D,8 C,8 | z8 z8 | %7
w: Quan\-|* ta|bel- tà, quan\-|* ta gra- tia~~e|splen- do\- * * *|* re||
 z4 C,4 D,4 D,4 | E,4 E,4 C,4 F,4 | F,4 G,4 F,4 A,4 | A,4 F,4) z8 | F,16 | F,4 F,4 G,8 | %13
w: Si vid- de~~in|don- na mai, si|vid- de~~in don- na|mai, *|Va-|ga an- gio-|
 C,4 F,8 C,4 | D,4 B,,4 C,8 | F,,8 F,8 | G,4 A,4 B,4 G,4 | F,4 F,4 F,8 | D,4 D,4 F,8 | C,4 C8 B,4 | %20
w: let- ta tut-|t'il ciel vi|die- de|Quant' al- ta cor-|tes- sia, quan-|to va- lo-|re Re- gnò|
 A,4 G,4 F,8 | F,4 D,4 C,8 | z16 | z16 | z16 | z8 C,8- | C,8 F,4 F,4 | D,8 z4 F,4- | %28
w: in don- na|gi- a mai.||||Tutt'|* voi re-|gna con|
 F,4 F,4 G,4 A,4 | B,8 A,8- | A,8 D,8 | D,4 D,4 C,4 C,4 | F,8 F,8- | F,8 z8 | z16 | C,8 D,4 F,4- | %36
w: * pie- ta- te~~e|se- de|* Tal|che chiun- que vi|ve- de|||e cos- tu\-|
 F,4 E,4 D,8 | C,8 z8 | z4 F,8 E,4 | D,4 F,8 C,4 | z16 | F,8 F,4 F,4 | _E,4 C,4 D,8 | C,8 C,8- | %44
w: * mi san-|ti,|I di-|via oc- chi,||il bel vol-|to~~e le chio-|me D'An\-|
 C,4 C,4 F,4 F,4- | F,4 F,4 (B,,2 C,2 D,2 E,2) | F,4 F,8 E,4 | D,8 C,8 | z4 D,8 D,4 | B,,16 | %50
w: * ge- la son|* in- sie\- * * *|me col bel|no- me,|col bel|no-|
 F,16 |] %51
w: me.|

